X: 12060
T: Escape From Balto
R: jig
M: 6/8
K: Adorian
|:ABG ~A3|Ace edc|B/c/dB AGF|GBd dcB|
cAA dcB|cea gfg|agf dBG|1 EFG A2B:|2 EFG AB/c/d||
|:eaa egg|agf ged|c2A ABc|B/c/dB GBd|
[1 eaa egg|eaf ~g3|age dBG|BcB AB/c/d:|
[2 cAA dcB|cde ~f3|edc dBG|EFG A2B||

